X:1
T:Abends
T:Johann Friedrich Reichardt
T:Niklas Müller
T:Abends
T:CPDL - Creative Commons Attribution Non Commercial 3.0
C:Johann Friedrich Reichardt
Z:Niklas Müller
Z:CPDL - Creative Commons Attribution Non Commercial 3.0
%%score [ 1 2 3 4 ]
L:1/8
M:4/4
K:Eb
V:1 treble nm="Sopran"
V:2 treble nm="Alt" snm="A"
V:3 treble-8 nm="Tenor"
V:4 bass nm="Bass"
V:1
!p! E2 | B2 B2 A2 A2 | G4 F2 B2 | B2 E2 A2 G2 | F6!<(! F2 | A2 A2 G2 G2 | c4!<)!!>(! B2 A2!>)! | %7
w: 1.~Die|A- bend- glo- cke|schal- let und|mahnt zur Ruh' die|Welt, ein|stil- ler Frie- de|wal- let hin|
w: 2.~O|keh- re, sanf- ter|Frie- de, in|uns- rer Hüt- te|ein! du|sollst in mei- nem|Lie- de da-|
 G2 G2 F2 F2 | E6 |] %9
w: ü- ber's A- cker-|feld.|
w: für ge- prie- sen|sein.|
V:2
!p! E2 | E2 E2 E2 D2 | E4 D2 D2 | E2 E2 CD E2 | D6 D2 | C2 F2 E2 E2 | (E2 F2) G2 F2 | E2 E2 E2 D2 | %8
 E6 |] %9
V:3
!p! E2 | G2 B2 B2 B2 | B4 B2 B2 | B2 c2 A2 B2 | B6!<(! B2 | A2 c2 c2 B2 | %6
w: 1.~Die|A- bend- glo- cke|schal- let und|mahnt zur Ruh' die|Welt, ein|stil- ler Frie- de|
w: 2.~O|keh- re, sanf- ter|Frie- de, in|uns- rer Hüt- te|ein! du|sollst in mei- nem|
 (c2!<)!!>(! d2) e2 B2!>)! | B2 c2 c2 B2 | G6 |] %9
w: wal- * let hin|ü- bers A- cker-|feld.|
w: Lie- * de da-|für ge- prie- sen|sein.|
V:4
!p! E,2 | E,2 G,2 F,2 B,,2 | (E,2 G,2) B,2 A,2 | G,2 C,2 F,2 E,2 | B,,6 B,,2 | F,2 F,2 C,2 E,2 | %6
 A,4 G,2 D,2 | E,2 C,2 A,,2 B,,2 | E,6 |] %9

